X:7
T:Charles Attwood
C:James Hill
Z:robin.beech@mcgill.ca
B:The Fiddle Music of James Hill
N:Originally in A
R:Hornpipe
M:4/4
L:1/8
K:G
(3DEF | GFAG BAcB | d^ced =cBAG | EGFA GBAc | (3BAG cB A2 (3DEF |
GFAG BAcB | d^ced =cBAG | EGFA GBAc | BGAF G2 ::
(3ef | gfag fgef | decd BcAB | GDB,D GBAc | BGcB A2 Bc |
dgbg decd | BcAB GDEF | GBAc Bdce | dDEF G2 :|
P:Alternative B Part
(3def | gfag fgef | decd BcAB | GDB,D GBAc | (3BAG cB A2 Bc |
g2 (3bag fgef | decd BcAB | GDB,D GBAc | BGAF G2 :|
